src/Icon/svgs/help.svg

<svg width="24" height="24" viewBox="0 0 24 24" fill="none" xmlns="http://www.w3.org/2000/svg">
<path fill-rule="evenodd" clip-rule="evenodd" d="M11 18H13V16H11V18ZM12 6C9.79 6 8 7.79 8 10H10C10 8.9 10.9 8 12 8C13.1 8 14 8.9 14 10C14 12 11 11.75 11 15H13C13 12.75 16 12.5 16 10C16 7.79 14.21 6 12 6Z" fill="#1B1C1D"/>
<path fill-rule="evenodd" clip-rule="evenodd" d="M12 21C16.9706 21 21 16.9706 21 12C21 7.02944 16.9706 3 12 3C7.02944 3 3 7.02944 3 12C3 16.9706 7.02944 21 12 21ZM12 23C18.0751 23 23 18.0751 23 12C23 5.92487 18.0751 1 12 1C5.92487 1 1 5.92487 1 12C1 18.0751 5.92487 23 12 23Z" fill="#1B1C1D"/>
</svg>

<svg xmlns="http://www.w3.org/2000/svg" width="24" height="24" fill="#1B1C1D"  fill-rule="evenodd"><path d="M11 18h2v-2h-2v2zm1-12a4 4 0 0 0-4 4h2c0-1.1.9-2 2-2s2 .9 2 2c0 2-3 1.75-3 5h2c0-2.25 3-2.5 3-5a4 4 0 0 0-4-4zm0 15a9 9 0 1 0 0-18 9 9 0 1 0 0 18zm0 2c6.075 0 11-4.925 11-11S18.075 1 12 1 1 5.925 1 12s4.925 11 11 11z"/></svg>
